src/shared/media/imgs/teams.svg

<svg width="15" height="14" viewBox="0 0 15 14" fill="none" xmlns="http://www.w3.org/2000/svg">
<g id="Group">
<g id="Group_2">
<path id="Vector" d="M4.33558 6.47976C4.84534 6.47976 5.31264 6.243 5.69066 5.87923C5.29416 5.16823 5.06783 4.36385 5.06783 3.592C5.06783 2.93743 5.22573 2.31999 5.50367 1.77479C5.15895 1.56341 4.75605 1.43951 4.32387 1.43951C3.06065 1.43951 2.03674 2.47826 2.03674 3.75946C2.03674 5.04084 3.07236 6.47976 4.33558 6.47976Z" fill="#CB3CFF"/>
<path id="Vector_2" d="M5.8738 7.58C5.65058 7.53184 5.41949 7.50519 5.18199 7.50519H3.4811C1.67116 7.50519 0.203735 8.97719 0.203735 10.7931L0.21142 11.1819C0.21142 11.6892 0.621457 12.1006 1.12719 12.1006H2.80429C2.88663 10.0803 4.12479 8.35791 5.8738 7.58Z" fill="#CB3CFF"/>
<path id="Vector_3" d="M9.01602 6.96472C10.5822 6.96472 11.8376 5.18041 11.8376 3.59169C11.8376 2.00297 10.5678 0.714966 9.00157 0.714966C7.43534 0.714966 6.16553 2.00297 6.16553 3.59169C6.16571 5.18041 7.4498 6.96472 9.01602 6.96472Z" fill="#CB3CFF"/>
<path id="Vector_4" d="M14.1296 12.3137C14.1296 10.0619 12.3101 8.23663 10.0658 8.23663H7.95672C5.7124 8.23663 3.89294 10.0619 3.89294 12.3137L3.90264 12.7958C3.90264 13.4248 4.41093 13.9349 5.03816 13.9349H13.004C13.631 13.9349 14.1395 13.4248 14.1395 12.7958L14.1296 12.3137Z" fill="#CB3CFF"/>
</g>
</g>
</svg>

<svg xmlns="http://www.w3.org/2000/svg" width="15" height="14" fill="#cb3cff" xmlns:v="https://vecta.io/nano"><path d="M4.336 6.48c.51 0 .977-.237 1.355-.601-.397-.711-.623-1.515-.623-2.287a3.99 3.99 0 0 1 .436-1.817 2.25 2.25 0 0 0-1.18-.335c-1.263 0-2.287 1.039-2.287 2.32s1.036 2.72 2.299 2.72zm1.538 1.1a3.28 3.28 0 0 0-.692-.075H3.481c-1.81 0-3.277 1.472-3.277 3.288l.008.389a.92.92 0 0 0 .916.919h1.677a5.18 5.18 0 0 1 3.07-4.521zm3.142-.615c1.566 0 2.822-1.784 2.822-3.373S10.568.715 9.002.715 6.166 2.003 6.166 3.592s1.284 3.373 2.85 3.373zm5.114 5.349a4.07 4.07 0 0 0-4.064-4.077H7.957c-2.244 0-4.064 1.825-4.064 4.077l.01.482c0 .629.508 1.139 1.136 1.139h7.966a1.14 1.14 0 0 0 1.136-1.139l-.01-.482z"/></svg>
